X:157
T:Untitled. HA.156
M:3/4
L:1/8
Q:1/4=140
S:Henry Atkinson’s original MS,Hartburn,N’umberland,1694.
O:England
A:Hartburn,Northumberland
N:Final note in A music undotted in MS. NBr
H:1/8
Z:vmp.Neil Brookes, Jan.2004
K:C
C2 CD E2|E2 EF G2|G2 GABG|c4B2|
A2G2F2|”^=”E3DC2|EF G2B,2|”^undotted in MS”C6:|
|:c2 cded|c2 cded|c2 cdef|g4g2|
e2 ef g2|e2 ef g2|e2 fede|c6:|

